res/media/img/icon/sn/Steam.svg

<svg xmlns="http://www.w3.org/2000/svg" xmlns:xlink="http://www.w3.org/1999/xlink" width="512" zoomAndPan="magnify" viewBox="0 0 384 383.999986" height="512" preserveAspectRatio="xMidYMid meet" version="1.0"><defs><clipPath id="a554b45616"><path d="M 0 0 L 381.75 0 L 381.75 384 L 0 384 Z M 0 0 " clip-rule="nonzero"/></clipPath></defs><g clip-path="url(#a554b45616)"><path fill="#ffffff" d="M 190.546875 -2.101562 C 90.097656 -2.101562 7.8125 76.113281 0 175.5 L 102.480469 218.300781 C 111.164062 212.304688 121.660156 208.796875 132.941406 208.796875 C 133.957031 208.796875 134.964844 208.824219 135.953125 208.886719 L 181.539062 142.160156 L 181.539062 141.226562 C 181.539062 101.078125 213.882812 68.40625 253.640625 68.40625 C 293.394531 68.40625 325.738281 101.078125 325.738281 141.226562 C 325.738281 181.367188 293.394531 214.0625 253.640625 214.0625 C 253.089844 214.0625 252.550781 214.050781 252 214.035156 L 186.996094 260.863281 C 187.042969 261.730469 187.058594 262.59375 187.058594 263.445312 C 187.058594 293.589844 162.78125 318.125 132.941406 318.125 C 106.746094 318.125 84.832031 299.234375 79.878906 274.222656 L 6.578125 243.613281 C 29.277344 324.675781 103.015625 384.101562 190.546875 384.101562 C 296.15625 384.101562 381.75 297.636719 381.75 190.992188 C 381.75 84.347656 296.15625 -2.101562 190.546875 -2.101562 Z M 119.820312 290.890625 L 96.335938 281.085938 C 100.492188 289.84375 107.703125 297.171875 117.261719 301.1875 C 137.925781 309.886719 161.75 299.992188 170.371094 279.117188 C 174.53125 268.996094 174.5625 257.851562 170.429688 247.714844 C 166.316406 237.582031 158.515625 229.675781 148.507812 225.464844 C 138.558594 221.300781 127.910156 221.453125 118.554688 225.019531 L 142.824219 235.152344 C 158.066406 241.566406 165.269531 259.238281 158.917969 274.636719 C 152.582031 290.023438 135.066406 297.308594 119.820312 290.890625 Z M 301.691406 141.222656 C 301.691406 114.472656 280.125 92.691406 253.644531 92.691406 C 227.144531 92.691406 205.597656 114.472656 205.597656 141.222656 C 205.597656 167.976562 227.144531 189.734375 253.644531 189.734375 C 280.125 189.734375 301.691406 167.976562 301.691406 141.222656 Z M 217.628906 141.140625 C 217.628906 121.011719 233.796875 104.695312 253.71875 104.695312 C 273.65625 104.695312 289.820312 121.011719 289.820312 141.140625 C 289.820312 161.277344 273.65625 177.589844 253.71875 177.589844 C 233.796875 177.589844 217.628906 161.277344 217.628906 141.140625 Z M 217.628906 141.140625 " fill-opacity="1" fill-rule="nonzero"/></g></svg>

<svg xmlns="http://www.w3.org/2000/svg" version="1.0" viewBox="0 0 384 384"><defs><clipPath id="a"><path d="M0 0h381.75v384H0zm0 0"/></clipPath></defs><g clip-path="url(#a)"><path fill="#fff" d="M190.547-2.102C90.097-2.102 7.813 76.113 0 175.5l102.48 42.8c8.684-5.995 19.18-9.503 30.461-9.503 1.016 0 2.024.027 3.012.09l45.586-66.727v-.933c0-40.149 32.344-72.82 72.102-72.82 39.754 0 72.097 32.671 72.097 72.82 0 40.14-32.343 72.835-72.097 72.835-.551 0-1.09-.011-1.641-.027l-65.004 46.828c.047.867.063 1.73.063 2.582 0 30.145-24.278 54.68-54.118 54.68-26.195 0-48.109-18.89-53.062-43.902l-73.3-30.61c22.698 81.063 96.437 140.489 183.968 140.489 105.61 0 191.203-86.465 191.203-193.11 0-106.644-85.594-193.094-191.203-193.094zM119.82 290.891l-23.484-9.805c4.156 8.758 11.367 16.086 20.926 20.101 20.664 8.7 44.488-1.195 53.11-22.07 4.16-10.12 4.19-21.265.058-31.402-4.114-10.133-11.914-18.04-21.922-22.25-9.95-4.164-20.598-4.012-29.953-.445l24.27 10.132c15.241 6.414 22.445 24.086 16.093 39.485-6.336 15.386-23.852 22.672-39.098 16.254zm181.871-149.668c0-26.75-21.566-48.532-48.046-48.532-26.5 0-48.047 21.782-48.047 48.532 0 26.754 21.547 48.511 48.047 48.511 26.48 0 48.046-21.757 48.046-48.511zm-84.062-.082c0-20.13 16.168-36.446 36.09-36.446 19.937 0 36.101 16.317 36.101 36.446 0 20.136-16.164 36.449-36.101 36.449-19.922 0-36.09-16.313-36.09-36.45zm0 0"/></g></svg>
